icon-themes/sifr_svg/cmd/sc_capturepoint.svg

<svg viewBox="0 0 16 16" xmlns="http://www.w3.org/2000/svg"><path d="m7 1v4h-2v2h-4v2h4v2h2v4h2v-4h2v-2h4v-2h-4v-2h-2v-4zm0 6h2v2h-2z" fill="#555753"/></svg>

<svg xmlns="http://www.w3.org/2000/svg" viewBox="0 0 16 16">
  <path
     style="fill:#555753"
     d="M 7 1 L 7 5 L 5 5 L 5 7 L 1 7 L 1 9 L 5 9 L 5 11 L 7 11 L 7 15 L 9 15 L 9 11 L 11 11 L 11 9 L 15 9 L 15 7 L 11 7 L 11 5 L 9 5 L 9 1 L 7 1 z M 7 7 L 9 7 L 9 9 L 7 9 L 7 7 z "
     />
</svg>
